assets/icons/fullscreen - white.svg

<?xml version="1.0" encoding="utf-8"?>
<!-- Generator: Adobe Illustrator 24.3.0, SVG Export Plug-In . SVG Version: 6.00 Build 0)  -->
<svg version="1.1" id="Layer_1" xmlns="http://www.w3.org/2000/svg" xmlns:xlink="http://www.w3.org/1999/xlink" x="0px" y="0px"
	 viewBox="0 0 96 96" style="enable-background:new 0 0 96 96;" xml:space="preserve">
<style type="text/css">
	.st0{fill:#FFFFFF;}
</style>
<g>
	<path class="st0" d="M30,0H6C2.7,0,0,2.7,0,6c0,0,0,0,0,0v24c0,3.3,2.7,6,6,6s6-2.7,6-6V12h18c3.3,0,6-2.7,6-6S33.3,0,30,0z"/>
	<path class="st0" d="M90,0H66c-3.3,0-6,2.7-6,6s2.7,6,6,6h18v18c0,3.3,2.7,6,6,6s6-2.7,6-6V6C96,2.7,93.3,0,90,0C90,0,90,0,90,0z"
		/>
	<path class="st0" d="M30,84H12V66c0-3.3-2.7-6-6-6s-6,2.7-6,6v24c0,3.3,2.7,6,6,6c0,0,0,0,0,0h24c3.3,0,6-2.7,6-6S33.3,84,30,84z"
		/>
	<path class="st0" d="M90,60c-3.3,0-6,2.7-6,6c0,0,0,0,0,0v18H66c-3.3,0-6,2.7-6,6s2.7,6,6,6h24c3.3,0,6-2.7,6-6c0,0,0,0,0,0V66
		C96,62.7,93.3,60,90,60C90,60,90,60,90,60z"/>
</g>
</svg>

<svg id="Layer_1" data-name="Layer 1" xmlns="http://www.w3.org/2000/svg" viewBox="0 0 96 96"><path d="M30,0H6A6,6,0,0,0,0,6H0V30a6,6,0,0,0,12,0V12H30A6,6,0,0,0,30,0Z" style="fill:#fff"/><path d="M90,0H66a6,6,0,0,0,0,12H84V30a6,6,0,0,0,12,0V6a6,6,0,0,0-6-6Z" style="fill:#fff"/><path d="M30,84H12V66A6,6,0,0,0,0,66V90a6,6,0,0,0,6,6H30a6,6,0,0,0,0-12Z" style="fill:#fff"/><path d="M90,60a6,6,0,0,0-6,6h0V84H66a6,6,0,0,0,0,12H90a6,6,0,0,0,6-6h0V66a6,6,0,0,0-6-6Z" style="fill:#fff"/></svg>
